X:18819
T:Wind That Blows The Barley,The. GS.042
M:2/2
L:1/8
Q:100
S:George Spencer m/s, Leeds,1831
R:Reel
O:England
A:Leeds
N:'George Spencer Book L' written at end.
H:1831
Z:vmp.Cherri Graebe
K:D major
A3 B AFDF | B2BA B2d2 | A3 B AFDF | gfed B2 d2 :||:! f2 fd g2 ge | f2 fd
 cecA | 
f2 fd g2 ge | afed B2 d2 :||


